!!!!SEGMENT: pl-gd--ee-2628--005-012_stabile-annibale--il-primo-libro-de-madrigali-a-cinque-voci-puote-aguagliar.krn
!!!cenid: 15xx:1057
!!!COM: Stabile, Annibale
!!!COM-rismID:
!!!CDT: ~1535-1595/04
!!!CNT: Italian
!!!GTL: Il primo libro de madrigali a cinque voci
!!!OTL: Puote aguagliar
!!!OMV: 012
!!!PDT: 1586
!!!AGN:
!!!SMS-siglum: PL-GD
!!!SMS-shelfmark: Ee 2628
!!!SMS-variant:
!!!SMS-altvar:
!!!SMS-shelfwork: 005-012 G
!!!NIFC-rismSourceID: 990060531
!!!NIFC-islandoraID: pl-gd:66139
!!!URL-pdf-islandora: https://repozytorium.nifc.pl/islandora/object/pl-gd%3A66139/datastream/PDF/view
!!!URL-scan: https://polish.musicsources.pl/pl/lokalizacje/galeria/klocki-introligatorskie/673 @EN{Scan on Polish Music Herritage in Open Access Website} @PL{Skany w portalu Dziedzictwo Muzyki Polskiej w otwartym dostępie}
!!!ONB-nifc: UWAGA: Canto: s. 78-89, Tenore: s. 233-245, Basso: s. 390-401, Quinto: s. 712-723. Dla głosu Alto proszę skorzystać z https://pbc.gda.pl/dlibra/doccontent?id=79410, str. 25-48. Uwaga: utwory podzielone wg spisu treści dostępnych na końcu ksiąg – proszę sprawdzać sąsiednie tytuły. Głos Quinto proszę umieszczać wg ambitusu (może się różnić w zależności od utworu).
!!!AIN: 1 alto 1 bass 1 soprn 2 tenor
!!!key: d:dor
**kern	**text	**kern	**text	**kern	**text	**kern	**text	**kern	**text
*part5	*part5	*part4	*part4	*part3	*part3	*part2	*part2	*part1	*part1
*staff5	*staff5	*staff4	*staff4	*staff3	*staff3	*staff2	*staff2	*staff1	*staff1
*I"BASSO	*	*I"TENORE	*	*I"QVINTO	*	*I"ALTO	*	*I"CANTO	*
*I'B	*	*I'T	*	*I'V 5	*	*I'A	*	*I'S	*
*Ibass	*	*Itenor	*	*Itenor	*	*Ialto	*	*Isoprn	*
*ICvox	*	*ICvox	*	*ICvox	*	*ICvox	*	*ICvox	*
*clefF3	*	*clefC3	*	*clefC3	*	*clefC2	*	*clefG2	*
*k[]	*	*k[]	*	*k[]	*	*k[]	*	*k[]	*
*d:dor	*	*d:dor	*	*d:dor	*	*d:dor	*	*d:dor	*
*M2/1	*	*M2/1	*	*M2/1	*	*M2/1	*	*M2/1	*
*met(C)	*	*met(C)	*	*met(C)	*	*met(C)	*	*met(C)	*
=1-	=1-	=1-	=1-	=1-	=1-	=1-	=1-	=1-	=1-
!LO:TX:a:i:t=Seconda parte.	!	!LO:TX:a:i:t=Seconda parte.	!	!LO:TX:a:i:t=Seconda parte.	!	!LO:TX:a:i:t=Seconda parte.	!	!LO:TX:a:i:t=Seconda parte.	!
00r	.	0r	.	0r	.	1d	PVo-	1dd	PVo-
.	.	.	.	.	.	2f\	te a-	2cc\	te a-
.	.	.	.	.	.	2g\	-gua-	2b/	-gua-
=2-	=2-	=2-	=2-	=2-	=2-	=2-	=2-	=2-	=2-
.	.	2r	.	1r	.	4d/	-gliar	1a	-gliar
.	.	.	.	.	.	4e/	.	.	.
.	.	2d\	PVo-	.	.	4f\	.	.	.
.	.	.	.	.	.	4d/	.	.	.
.	.	2c/	te a-	2r	.	4e/	.	2r	.
.	.	.	.	.	.	4f\	.	.	.
*	*	*	*	*	*	*	*	*	*ij
.	.	2B/	-gua-	2d\	Vo-	4g\	.	2dd\	PVo-
.	.	.	.	.	.	8f\	.	.	.
.	.	.	.	.	.	8g\	.	.	.
=3-	=3-	=3-	=3-	=3-	=3-	=3-	=3-	=3-	=3-
1r	.	1A	-gliar	2f\	te a-	1a	.	2dd\	te a-
.	.	.	.	2e\	-gua-	.	.	2cc#X\	-gua-
1D	PVo-	2r	.	4d\	-gliar	2r	.	1dd	-gliar
*	*	*	*	*	*	*	*	*	*Xij
.	.	.	.	4e\	.	.	.	.	.
*	*	*	*ij	*	*	*	*	*	*
.	.	2d\	PVo-	4f\	.	2a\	Puo-	.	.
.	.	.	.	4g\	.	.	.	.	.
=4-	=4-	=4-	=4-	=4-	=4-	=4-	=4-	=4-	=4-
2F/	te a-	4c/	te a-	2a\	.	4f\	te a-	1r	.
.	.	4A/	-gua-	.	.	4d/	-gua-	.	.
!	!	!	!	!	!	!LO:SIC:v:t=custos e	!	!	!
!	!	!	!	!	!	!LO:LB:g=original	!	!	!
2E/	-gua-	8B/	-gliar	2g\	l'al-	2e/	-gliar	.	.
*	*	*	*Xij	*	*	*	*	*	*
.	.	8A/	.	.	.	.	.	.	.
.	.	8B/	.	.	.	.	.	.	.
.	.	8c\	.	.	.	.	.	.	.
2D/	-gliar	2d\	.	2.f\	-to	2a\	l'al-	2r	.
2d\	l'al-	2.f\	l'al-	.	.	2.a\	-to	2dd\	l'al-
.	.	.	.	4d\	pia-	.	.	.	.
=5-	=5-	=5-	=5-	=5-	=5-	=5-	=5-	=5-	=5-
4d\	-to	.	.	8f\	-cer	.	.	4dd\	-to
.	.	.	.	8g\	.	.	.	.	.
4d\	pia-	4d\	-to	8a\	.	4a\	pia-	4ff\	pia-
.	.	.	.	8f\	.	.	.	.	.
!	!	!LO:SIC:v:t=custos e	!	!LO:SIC:v:t=custos g	!	!	!	!	!
!	!	!LO:LB:g=original	!	!LO:LB:g=original	!	!	!	!	!
8c\	-cer	4e\	pia-	4g\	.	2cc\	-cer	8ee\	-cer
8B\	.	.	.	.	.	.	.	8dd\	.
8A\	.	2a\	-cer	4c/	ch'io	.	.	8ccny\	.
8G\	.	.	.	.	.	.	.	8b\	.
!	!	!	!	!	!	!	!	!LO:SIC:v:t=custos a	!
!	!	!	!	!	!	!	!	!LO:LB:g=original	!
4F\	.	.	.	2d\	pro-	4r	.	4a/	.
4D/	ch'io	4f\	ch'io	.	.	4a\	ch'io	4dd\	ch'io
!LO:SIC:v:t=custos A	!	!	!	!	!	!	!	!	!
!LO:LB:g=original	!	!	!	!	!	!	!	!	!
2A\	pro-	2e\	pro-	2e\	-uo	2a\	pro-	2cc#X\	pro-
=6-	=6-	=6-	=6-	=6-	=6-	=6-	=6-	=6-	=6-
1D	-uo	4d\	-ue	2r	.	4f#X\	-uo	4dd\	-uo
.	.	4.d\	Quan-	.	.	4.f#\	Quan-	4.a/	Quan-
.	.	.	.	4r	.	.	.	.	.
.	.	8d\	-do	.	.	8f#\	-do	8a/	-do
.	.	4d\	ſul	4.d\	Quan-	4f#\	ſul	4a/	ſul
4r	.	8G/	di	.	.	4g\	di	1b	di
.	.	8A/	.	8d\	-do	.	.	.	.
*	*	*	*	*	*	*	*ij	*	*
4.G\	Quan-	8B/	.	4d\	ſul	4.g\	Quan-	.	.
.	.	8c\	.	.	.	.	.	.	.
.	.	8d\	.	2G/	di	.	.	.	.
8G\	-do	8c\	.	.	.	8g\	-do	.	.
4G\	ſul	8d\	.	.	.	4g\	ſul	.	.
.	.	8e\	.	.	.	.	.	.	.
=7-	=7-	=7-	=7-	=7-	=7-	=7-	=7-	=7-	=7-
1D	di	4f#X\	.	4r	.	1a	di	4r	.
*	*	*	*	*	*ij	*	*Xij	*	*ij
.	.	4.f#\	Quan-	4.d\	Quan-	.	.	4.dd\	Quan-
.	.	8f#\	-do	8d\	-do	.	.	8dd\	-do
.	.	4f#\	ſul	4d\	ſul	.	.	4dd\	ſul
!	!	!LO:SIC:v:t=custos g	!	!	!	!	!	!	!
!	!	!LO:LB:g=original	!	!	!	!	!	!	!
2r	.	2g\	di	1G	di	2r	.	2b\	di
*	*	*	*	*	*Xij	*	*	*	*Xij
2G\	la	2g\	la	.	.	2b\	la	2dd\	la
=8-	=8-	=8-	=8-	=8-	=8-	=8-	=8-	=8-	=8-
2c\	ca-	4g\	ca-	0r	.	4cc\	ca-	2ee\	ca-
.	.	2e\	-ra	.	.	4g\	-ra	.	.
!	!	!	!	!	!	!LO:SIC:v:t=custos a	!	!	!
!	!	!	!	!	!	!LO:LB:g=original	!	!	!
4A\	-ra	.	.	.	.	2.a\	don-	4ccny\	-ra
2F/	don-	2fny\	don-	.	.	.	.	2cc\	don-
4G\	-na	4d\	-na	.	.	4g\	-na	4b/	-na
2A\	mi-	2c#X/	mi-	.	.	2e/	mi-	2a/	mi-
=9-	=9-	=9-	=9-	=9-	=9-	=9-	=9-	=9-	=9-
2D/	-a	2d\	-a	4r	.	2f#X\	-a	2a/	-a
.	.	.	.	2A/	Mi	.	.	.	.
2D/	Mi	2f#X\	Mi	.	.	2a\	Mi	2dd\	Mi
.	.	.	.	2d\	s'ap-	.	.	.	.
!	!	!	!	!	!	!	!	!LO:SIC:v:t=custos dd	!
!	!	!	!	!	!	!	!	!LO:LB:g=original	!
2G\	s'ap-	2g\	s'ap-	.	.	4b\	s'ap-	2dd\	s'ap-
.	.	.	.	4G/	-pre-	4b\	-pre-	.	.
2C/	-pre-	2g\	-pre-	2c/	-ſen-	2.cc\	-ſen-	2ee\	-pre-
=10-	=10-	=10-	=10-	=10-	=10-	=10-	=10-	=10-	=10-
1G	-ſen-	1g	-ſen-	0d	-ta	.	.	1.dd	-ſen-
.	.	.	.	.	.	8b\	.	.	.
.	.	.	.	.	.	8a\	.	.	.
.	.	.	.	.	.	2b\	.	.	.
1D	-ta	2fny\	-ta	.	.	1a	ta in	.	.
.	.	4r	.	.	.	.	.	2dd\	ta in
.	.	4d\	in	.	.	.	.	.	.
!LO:SIC:v:t=custos B-	!	!	!	!LO:SIC:v:t=custos f	!	!	!	!	!
!LO:LB:g=original	!	!	!	!LO:LB:g=original	!	!	!	!	!
=11-	=11-	=11-	=11-	=11-	=11-	=11-	=11-	=11-	=11-
0r	.	2f\	ſi	0r	.	2a\	ſi	4cc\	ſi
.	.	.	.	.	.	.	.	4dd\	ſo-
.	.	4g\	ſo-	.	.	4b\	ſo-	2ee\	-a-
.	.	2a\	-a-	.	.	2cc\	-a-	.	.
.	.	.	.	.	.	.	.	2cc\	-ui
.	.	4A/	-ui	.	.	4a\	-ui	.	.
.	.	2e\	tem-	.	.	2g#X\	tem-	2b/	tem-
=12-	=12-	=12-	=12-	=12-	=12-	=12-	=12-	=12-	=12-
1r	.	1A	-pre	1r	.	1a	-pre	1a	-pre
!	!	!LO:SIC:v:t=custos d	!	!	!	!	!	!	!
!	!	!LO:LB:g=original	!	!	!	!	!	!	!
2B-X\	Fal-	2d\	Fal-	4r	.	1r	.	1r	.
.	.	.	.	2f\	Fal-	.	.	.	.
4A\	-la-	4cny/	-la-	.	.	.	.	.	.
4A\	-ce	4c/	-ce	2e\	-la-	.	.	.	.
=13-	=13-	=13-	=13-	=13-	=13-	=13-	=13-	=13-	=13-
2G\	ſo-	2g\	ſo-	.	.	2b-X\	Fal-	2r	.
.	.	.	.	4d\	-ce	.	.	.	.
!	!	!	!	!	!	!LO:SIC:v:t=custos a	!	!	!
!	!	!	!	!	!	!LO:LB:g=original	!	!	!
2F/	-gno	2c/	-gno	2f\	ſo-	4a\	-la-	2ff\	Fal-
.	.	.	.	.	.	4a\	-ce	.	.
1r	.	2r	.	2c/	-gno	2gny\	ſo-	4ee\	-la-
.	.	.	.	.	.	.	.	4ee\	-ce
*	*	*	*ij	*	*	*	*	*	*
.	.	2B-X/	Fal-	4r	.	4fny\	-gno	2dd\	ſe-
*	*	*	*	*	*ij	*	*ij	*	*
.	.	.	.	4d\	Fal-	4g\	Fal-	.	.
=14-	=14-	=14-	=14-	=14-	=14-	=14-	=14-	=14-	=14-
1r	.	4A/	-la-	4e\	-la-	4a\	-la-	1cc	-gno
.	.	4F/	-ce	4f\	-ce	4a\	-ce	.	.
.	.	2c/	ſo-	2e\	ſo-	2g\	ſo-	.	.
2r	.	1F	-gno	1f	-gno	2a\	-gno	2r	.
*	*	*	*Xij	*	*Xij	*	*Xij	*	*
2.F/	a	.	.	.	.	2.a\	a	2.ff\	a
=15-	=15-	=15-	=15-	=15-	=15-	=15-	=15-	=15-	=15-
.	.	1r	.	1r	.	.	.	.	.
4D/	che	.	.	.	.	4a\	che	4ff\	che
2d\	ſta-	.	.	.	.	4a\	ſta-	2ff\	ſta-
.	.	.	.	.	.	8a\	-bil	.	.
.	.	.	.	.	.	8a\	non	.	.
4c#X\	-bil	4r	.	4r	.	2a\	tro-	4ee\	-bil
4d\	non	2f\	a	2a\	a	.	.	4dd\	non
!	!	!	!	!	!	!	!	!LO:SIC:v:t=custos dd	!
!	!	!	!	!	!	!	!	!LO:LB:g=original	!
2B-X\	tro-	.	.	.	.	2d/	-uo	2.dd\	tro-
.	.	4d\	che	4g\	che	.	.	.	.
=16-	=16-	=16-	=16-	=16-	=16-	=16-	=16-	=16-	=16-
2A\	-uo	2a\	ſta-	4f\	ſta-	4r	.	.	.
*	*	*	*	*	*	*	*ij	*	*
.	.	.	.	2e\	-bil	4a\	a	4cc#X\	-uo
2r	.	4g#X\	-bil	.	.	4bny\	che	2r	.
.	.	4a\	non	2A/	non	4.cc\	ſta-	.	.
1r	.	2f\	tro-	.	.	.	.	1r	.
.	.	.	.	.	.	8cc\	-bil	.	.
.	.	.	.	4.a\	tro-	4a\	non	.	.
!	!	!	!	!	!	!LO:SIC:v:t=custos b	!	!	!
!	!	!	!	!	!	!LO:LB:g=original	!	!	!
.	.	2e\	-uo	.	.	2b\	tro-	.	.
.	.	.	.	8g#X\	.	.	.	.	.
.	.	.	.	4g#\	.	.	.	.	.
!	!	!	!	!LO:SIC:v:t=custos a	!	!	!	!	!
!	!	!	!	!LO:LB:g=original	!	!	!	!	!
=17-	=17-	=17-	=17-	=17-	=17-	=17-	=17-	=17-	=17-
4r	.	1r	.	4a\	-uo	4cc\	-uo	4r	.
*	*	*	*	*	*	*	*Xij	*	*
4.D/	Quan-	.	.	4.f\	Quan-	4.a\	Quan-	4.dd\	Quan-
8D/	-to	.	.	8f\	-do	8a\	-do	8dd\	-do
4D/	mi	.	.	4f\	mi	4a\	mi	4dd\	mi
!LO:SIC:v:t=custos A	!	!LO:SIC:v:t=custos e	!	!	!	!	!	!	!
!LO:LB:g=original	!	!LO:LB:g=original	!	!	!	!	!	!	!
1A	dai	4r	.	4e\	dai	1a	dai	4cc#X\	dai
*	*	*	*	*	*ij	*	*	*	*ij
.	.	4.e\	Quan-	4.A/	Quan-	.	.	4.cc#\	Quan-
.	.	8e\	-do	8A/	-do	.	.	8cc#\	-do
.	.	4e\	mi	4A/	mi	.	.	4cc#\	mi
=18-	=18-	=18-	=18-	=18-	=18-	=18-	=18-	=18-	=18-
2r	.	2f#X\	dai	2d\	dai	1a	che	1dd	dai
*	*	*	*	*	*Xij	*	*	*	*Xij
2D/	che	2f#\	che	2d\	che	.	.	.	.
2G\	ſta-	2gny\	ſta-	2d\	ſta-	2b\	ſta-	1r	.
4A\	te o	4e\	te o	4a\	te o	4cc\	te o	.	.
2F/	ver-	2fny\	ver-	2a\	ver-	2cc\	ver-	.	.
=19-	=19-	=19-	=19-	=19-	=19-	=19-	=19-	=19-	=19-
.	.	.	.	.	.	.	.	1r	.
4G\	-no	4d\	-no	4gny\	-no	4b-X\	-no	.	.
2A\	ſi-	2c#X/	ſi-	2e\	ſi-	2a\	ſi-	.	.
1D	-a	2d\	-a	2f#X\	-a	2a\	-a	2r	.
*	*	*	*	*	*ij	*	*	*	*
.	.	2d\	che	2f#\	che	2a\	che	2dd\	che
=20-	=20-	=20-	=20-	=20-	=20-	=20-	=20-	=20-	=20-
0r	.	2cny/	ſta-	2g\	ſta-	2cc\	ſta-	2ee\	ſta-
!	!	!	!	!LO:SIC:v:t=custos a	!	!	!	!	!
!	!	!	!	!LO:LB:g=original	!	!	!	!	!
.	.	4A/	te o	4a\	te o	2cc\	te o	4ee\	te o
.	.	2f\	ver-	2a\	ver-	.	.	2ccny\	ver-
.	.	.	.	.	.	4a\	ver-	.	.
.	.	4d\	-no	4a\	-no	4dd\	-no	4ff\	-no
.	.	2e\	ſi-	2g#X\	ſi-	2bny\	ſi-	2ee\	ſi-
!	!	!	!	!	!	!LO:SIC:v:t=custos cc#	!	!	!
!	!	!	!	!	!	!LO:LB:g=original	!	!	!
=21-	=21-	=21-	=21-	=21-	=21-	=21-	=21-	=21-	=21-
4r	.	4A/	-a	4a\	-a	1cc#X	-a	1ee	-a
*	*	*	*	*	*Xij	*	*	*	*
2A\	Pri-	2e\	Pri-	2a\	Pri-	.	.	.	.
4A\	-ma-	4A/	-ma-	4a\	-ma-	.	.	.	.
!	!	!LO:SIC:v:t=custos B	!	!	!	!	!	!	!
!	!	!LO:LB:g=original	!	!	!	!	!	!	!
2E/	-ue-	2Bny/	-ue-	2g#X\	-ue-	2r	.	4r	.
.	.	.	.	.	.	.	.	2ee\	Pri-
2A\	-ra	4c#X/	-ra	4a\	-ra	4r	.	.	.
*	*	*	*	*	*ij	*	*	*	*
.	.	4c#/	per	2A/	Pri-	2a\	Pri-	4ee\	-ma-
!	!	!	!	!	!	!	!	!LO:SIC:v:t=custos ff	!
!	!	!	!	!	!	!	!	!LO:LB:g=original	!
=22-	=22-	=22-	=22-	=22-	=22-	=22-	=22-	=22-	=22-
2D/	per	2d\	me	.	.	.	.	2ff\	-ue-
.	.	.	.	4A/	-ma-	4a\	-ma-	.	.
2E/	me	2B/	ſa-	2e\	-ue-	2g#X\	-ue-	4ee\	-ra
.	.	.	.	.	.	.	.	4b/	per
1r	.	2A/	-reb-	1e	-ra	4a\	-ra	4.cc\	me
*	*	*	*	*	*Xij	*	*	*	*
.	.	.	.	.	.	4a\	per	.	.
.	.	.	.	.	.	.	.	8dd\	.
.	.	2cny/	-be	.	.	4g#\	me	4ee\	.
.	.	.	.	.	.	4ccny\	ſa-	4ee\	ſa-
=23-	=23-	=23-	=23-	=23-	=23-	=23-	=23-	=23-	=23-
1r	.	2d\	ſem-	0r	.	4b\	-reb-	4dd\	-reb-
.	.	.	.	.	.	4a\	-be	4cc\	-be
.	.	2e\	-pre	.	.	2g#X\	ſem-	2b/	ſem-
4r	.	4r	.	.	.	1a	-pre	4cc#X\	-pre
4.D/	Quan-	4.f\	Quan-	.	.	.	.	4.dd\	Quan-
8D/	-to	8f\	-to	.	.	.	.	8dd\	-to
4D/	mi	4f\	mi	.	.	.	.	4dd\	mi
!LO:SIC:v:t=custos A	!	!	!	!	!	!	!	!	!
!LO:LB:g=original	!	!	!	!	!	!	!	!	!
=24-	=24-	=24-	=24-	=24-	=24-	=24-	=24-	=24-	=24-
1A	dai	4e\	dai	4r	.	4r	.	4cc#X\	dai
*	*	*	*ij	*	*	*	*	*	*ij
.	.	4.A/	Quan-	4.e\	Quan-	4.a\	Quan-	4.cc#\	Quan-
.	.	8A/	-to	8e\	-to	8a\	-to	8cc#\	-to
.	.	4A/	mi	4e\	mi	4a\	mi	4cc#\	mi
2r	.	2d\	dai	2f#X\	dai	2a\	dai	1dd	dai
*	*	*	*Xij	*	*	*	*	*	*Xij
2D/	che	2d\	che	2f#\	che	2a\	che	.	.
!	!	!	!	!LO:SIC:v:t=custos g	!	!	!	!	!
!	!	!	!	!LO:LB:g=original	!	!	!	!	!
=25-	=25-	=25-	=25-	=25-	=25-	=25-	=25-	=25-	=25-
2G\	ſta-	2d\	ſta-	2gny\	ſta-	2b\	ſta-	1r	.
!	!	!LO:SIC:v:t=custos a	!	!	!	!LO:SIC:v:t=custos cc	!	!	!
!	!	!LO:LB:g=original	!	!	!	!LO:LB:g=original	!	!	!
4A\	te o	4a\	te o	4e\	te o	4cc\	te o	.	.
2F/	ver-	2a\	ver-	2fny\	ver-	2cc\	ver-	.	.
.	.	.	.	.	.	.	.	1r	.
4G\	-no	4g\	-no	4d\	-no	4b\	-no	.	.
2A\	ſia	2e\	ſi-	2c#X/	ſi-	2a\	ſi-	.	.
=26-	=26-	=26-	=26-	=26-	=26-	=26-	=26-	=26-	=26-
1D	.	2f#X\	-a	2d\	-a	2a\	-a	2r	.
*	*	*	*ij	*	*	*	*	*	*
.	.	2f#\	che	2d\	che	2a\	che	2dd\	che
!	!	!	!	!	!	!	!	!LO:SIC:v:t=custos ee	!
!	!	!	!	!	!	!	!	!LO:LB:g=original	!
0r	.	2g\	ſta-	2cny/	ſta-	2cc\	ſta-	2ee\	ſta-
.	.	4a\	te o	4A/	te o	2cc\	te o	4ee\	te o
.	.	2a\	ver-	2f\	ver-	.	.	2ccny\	ver-
=27-	=27-	=27-	=27-	=27-	=27-	=27-	=27-	=27-	=27-
.	.	.	.	.	.	4a\	ver-	.	.
.	.	4a\	-no	4d\	-no	4dd\	-no	4ff\	-no
.	.	2g#X\	ſi-	2e\	ſi-	2b\	ſi-	2ee\	ſi-
4r	.	4a\	-a	4A/	-a	1cc#X	-a	1ee	-a
*	*	*	*Xij	*	*	*	*	*	*
2A\	Pri-	2a\	Pri-	2e\	Pri-	.	.	.	.
4A\	-ma-	4a\	-ma-	4A/	-ma-	.	.	.	.
=28-	=28-	=28-	=28-	=28-	=28-	=28-	=28-	=28-	=28-
2E/	-ue-	2g#X\	-ue-	2B/	-ue-	2r	.	4r	.
.	.	.	.	.	.	.	.	2ee\	Pri-
2A\	-ra	4a\	-ra	4c#X/	-ra	4r	.	.	.
*	*	*	*ij	*	*	*	*	*	*
.	.	2A/	Pri-	4c#/	per	2a\	Pri-	4ee\	-ma-
2D/	per	.	.	2d\	me	.	.	2ff\	-ue-
.	.	4A/	-ma-	.	.	4a\	-ma-	.	.
2E/	me	2e\	-ue-	2B/	ſa-	2g#X\	-ue-	4ee\	-ra
.	.	.	.	.	.	.	.	4b/	per
!	!	!LO:SIC:v:t=custos e	!	!LO:SIC:v:t=custos A	!	!	!	!	!
!	!	!LO:LB:g=original	!	!LO:LB:g=original	!	!	!	!	!
=29-	=29-	=29-	=29-	=29-	=29-	=29-	=29-	=29-	=29-
1r	.	1e	-ra	2A/	-reb-	4a\	-ra	4.cc\	me
*	*	*	*Xij	*	*	*	*	*	*
.	.	.	.	.	.	4a\	per	.	.
.	.	.	.	.	.	.	.	8dd\	.
.	.	.	.	2cny/	-be	4g#\	me	4ee\	.
.	.	.	.	.	.	4ccny\	ſa-	4ee\	ſa-
!	!	!	!	!	!	!LO:SIC:v:t=custos b	!	!	!
!	!	!	!	!	!	!LO:LB:g=original	!	!	!
1r	.	2r	.	2d\	ſem-	4b\	-reb-	4dd\	-reb-
.	.	.	.	.	.	4a\	-be	4cc\	-be
.	.	4r	.	2e\	-pre	2g#X\	ſem-	2b/	ſem-
.	.	2e\	Pri-	.	.	.	.	.	.
=30-	=30-	=30-	=30-	=30-	=30-	=30-	=30-	=30-	=30-
*	*ij	*	*	*	*	*	*	*	*
2.A\	Pri-	.	.	4r	.	1a	-pre	1a	-pre
.	.	4e\	-ma-	2c/	Pri-	.	.	.	.
.	.	2fny\	-ue-	.	.	.	.	.	.
4A\	-ma-	.	.	4c/	-ma-	.	.	.	.
!	!	!	!	!	!	!	!	!LO:SIC:v:t=custos ee	!
!	!	!	!	!	!	!	!	!LO:LB:g=original	!
2G#X\	-ue-	2.e\	-ra	2B/	-ue-	2r	.	2.ee\	Pri-
!LO:SIC:v:t=custos A	!	!	!	!	!	!	!	!	!
!LO:LB:g=original	!	!	!	!	!	!	!	!	!
2A\	-ra	.	.	2c#X/	-ra	2.a\	Pri-	.	.
.	.	2A/	per	.	.	.	.	4ee\	-ma-
=31-	=31-	=31-	=31-	=31-	=31-	=31-	=31-	=31-	=31-
2D/	per	.	.	2d\	per	.	.	2ff#X\	-ue-
.	.	2d\	me	.	.	4a\	-ma-	.	.
2Gny\	me	.	.	1d	me	2b-X\	-ue-	4gg\	-ra
*	*Xij	*	*	*	*	*	*	*	*
.	.	4G/	ſa-	.	.	.	.	4gg\	per
1r	.	2A/	-reb-	.	.	1.a	-ra	2.ee\	me
.	.	2A/	-be	2c#X/	ſa-	.	.	.	.
.	.	.	.	.	.	.	.	4ee\	ſa-
=32-	=32-	=32-	=32-	=32-	=32-	=32-	=32-	=32-	=32-
2r	.	4.f\	ſem-	2.d\	-reb-	.	.	4dd\	-reb-
.	.	.	.	.	.	.	.	4dd\	-be
.	.	8e\	.	.	.	.	.	.	.
2D/	per	2d\	.	.	.	2a\	per	2ffny\	ſem-
.	.	.	.	4A/	-be	.	.	.	.
2A\	me	1e	-pre	2cny/	ſem-	4a\	me	2.ee\	-pre
.	.	.	.	.	.	4a\	ſa-	.	.
2E/	ſa-	.	.	4B/	-pre	4gny\	-reb-	.	.
.	.	.	.	4e\	ſa-	4bny\	-be	4gg\	ſa-
=33-	=33-	=33-	=33-	=33-	=33-	=33-	=33-	=33-	=33-
2F/	-reb-	2r	.	4.c/	-reb-	4.a\	ſem-	4ff\	-reb-
.	.	.	.	.	.	.	.	4ff\	-be
.	.	.	.	8d\	.	8b\	.	.	.
!	!	!	!	!LO:SIC:v:t=custos e	!	!	!	!	!
!	!	!	!	!LO:LB:g=original	!	!	!	!	!
2C/	-be	2gny\	ſa-	2e\	.	2cc\	.	2.ee\	ſem-
*lig	*	*	*	*	*	*	*	*	*
1D	ſem-	2f\	-reb-	2A/	-be	0al	-pre.	.	.
.	.	.	.	.	.	.	.	4dd\	.
.	.	2f\	-be	2.a\	ſem-	.	.	2.dd\	.
=34-	=34-	=34-	=34-	=34-	=34-	=34-	=34-	=34-	=34-
1A	.	1e	ſem-	.	.	.	.	.	.
.	.	.	.	8g\	.	.	.	8cc#X\	.
.	.	.	.	8f\	.	.	.	8b\	.
.	.	.	.	2e\	.	.	.	2cc#X\	.
*Xlig	*	*	*	*	*	*	*	*	*
0.Dl	-pre.	0.dl	-pre.	0.f#Xl	-pre.	0.yy	.	0.ddl	-pre.
=35-	=35-	=35-	=35-	=35-	=35-	=35-	=35-	=35-	=35-
.	.	.	.	.	.	.	.	.	.
=||	=||	=||	=||	=||	=||	=||	=||	=||	=||
*-	*-	*-	*-	*-	*-	*-	*-	*-	*-
!!!RDF**kern: l = terminal long
!!!system-decoration: [(s1,s2,s3,s4,s5)]
!!!ENC: Mateusz Solarz
!!!END: 2022-07-07
!!!ENC: Urszula Świątek
!!!END: 2022-07-29
